app/static/iconos/dispositivos/luminisidad.svg

<?xml version="1.0" encoding="UTF-8"?>
<svg width="30px" height="30px" viewBox="0 0 30 30" version="1.1" xmlns="http://www.w3.org/2000/svg" xmlns:xlink="http://www.w3.org/1999/xlink">
    <!-- Generator: Sketch 48.2 (47327) - http://www.bohemiancoding.com/sketch -->
    <title>01</title>
    <desc>Created with Sketch.</desc>
    <defs></defs>
    <g id="Dashboard" stroke="none" stroke-width="1" fill="none" fill-rule="evenodd" transform="translate(-23.000000, -459.000000)">
        <g id="Group-Copy-6" transform="translate(0.000000, 452.000000)">
            <g id="01" transform="translate(23.000000, 7.000000)">
                <rect id="Rectangle" x="0" y="0" width="30" height="30"></rect>
                <g id="sun" fill="#EBCC75">
                    <path d="M15,20.4 L15,20.4 C17.9823376,20.4 20.4,17.9823376 20.4,15 C20.4,12.0176624 17.9823376,9.6 15,9.6 C12.0176624,9.6 9.6,12.0176624 9.6,15 C9.6,17.9823376 12.0176624,20.4 15,20.4 L15,20.4 Z M15,22.8 L15,22.8 C10.692179,22.8 7.2,19.307821 7.2,15 C7.2,10.692179 10.692179,7.2 15,7.2 C19.307821,7.2 22.8,10.692179 22.8,15 C22.8,19.307821 19.307821,22.8 15,22.8 L15,22.8 Z" id="O" fill-rule="nonzero"></path>
                    <path d="M13.8,1.19886081 C13.8,0.536748268 14.3326378,0 15,0 C15.6627417,0 16.2,0.532023811 16.2,1.19886081 L16.2,3.60113919 C16.2,4.26325173 15.6673622,4.8 15,4.8 C14.3372583,4.8 13.8,4.26797619 13.8,3.60113919 L13.8,1.19886081 Z M23.910351,4.39259275 C24.3785352,3.92440849 25.1347054,3.92150194 25.6066017,4.39339828 C26.0752309,4.86202743 26.0789322,5.61812406 25.6074072,6.08964903 L23.9087399,7.78831636 C23.4405556,8.25650063 22.6843855,8.25940718 22.2124892,7.78751083 C21.74386,7.31888168 21.7401587,6.56278505 22.2116836,6.09126008 L23.910351,4.39259275 Z M28.8011392,13.8 C29.4632517,13.8 30,14.3326378 30,15 C30,15.6627417 29.4679762,16.2 28.8011392,16.2 L26.3988608,16.2 C25.7367483,16.2 25.2,15.6673622 25.2,15 C25.2,14.3372583 25.7320238,13.8 26.3988608,13.8 L28.8011392,13.8 Z M25.6074072,23.910351 C26.0755915,24.3785352 26.0784981,25.1347054 25.6066017,25.6066017 C25.1379726,26.0752309 24.3818759,26.0789322 23.910351,25.6074072 L22.2116836,23.9087399 C21.7434994,23.4405556 21.7405928,22.6843855 22.2124892,22.2124892 C22.6811183,21.74386 23.437215,21.7401587 23.9087399,22.2116836 L25.6074072,23.910351 Z M16.2,28.8011392 C16.2,29.4632517 15.6673622,30 15,30 C14.3372583,30 13.8,29.4679762 13.8,28.8011392 L13.8,26.3988608 C13.8,25.7367483 14.3326378,25.2 15,25.2 C15.6627417,25.2 16.2,25.7320238 16.2,26.3988608 L16.2,28.8011392 Z M6.08964903,25.6074072 C5.62146476,26.0755915 4.86529463,26.0784981 4.39339828,25.6066017 C3.92476913,25.1379726 3.92106779,24.3818759 4.39259275,23.910351 L6.09126008,22.2116836 C6.55944435,21.7434994 7.31561449,21.7405928 7.78751083,22.2124892 C8.25613998,22.6811183 8.25984132,23.437215 7.78831636,23.9087399 L6.08964903,25.6074072 Z M1.19886081,16.2 C0.536748268,16.2 3.46245236e-16,15.6673622 2.23652786e-16,15 C1.01909111e-16,14.3372583 0.532023811,13.8 1.19886081,13.8 L3.60113919,13.8 C4.26325173,13.8 4.8,14.3326378 4.8,15 C4.8,15.6627417 4.26797619,16.2 3.60113919,16.2 L1.19886081,16.2 Z M4.39259275,6.08964903 C3.92440849,5.62146476 3.92150194,4.86529463 4.39339828,4.39339828 C4.86202743,3.92476913 5.61812406,3.92106779 6.08964903,4.39259275 L7.78831636,6.09126008 C8.25650063,6.55944435 8.25940718,7.31561449 7.78751083,7.78751083 C7.31888168,8.25613998 6.56278505,8.25984132 6.09126008,7.78831636 L4.39259275,6.08964903 Z" id="light"></path>
                </g>
            </g>
        </g>
    </g>
</svg>

<?xml version="1.0" encoding="utf-8"?>
<!-- Generator: Adobe Illustrator 21.0.2, SVG Export Plug-In . SVG Version: 6.00 Build 0)  -->
<svg version="1.1" id="Capa_1" xmlns="http://www.w3.org/2000/svg" xmlns:xlink="http://www.w3.org/1999/xlink" x="0px" y="0px"
	 viewBox="0 0 30 30" style="enable-background:new 0 0 30 30;" xml:space="preserve">
<style type="text/css">
	.st0{fill:none;}
	.st1{fill:#FCDC22;}
</style>
<title>01</title>
<desc>Created with Sketch.</desc>
<g id="Dashboard" transform="translate(-23.000000, -459.000000)">
	<g id="Group-Copy-6" transform="translate(0.000000, 452.000000)">
		<g id="_x30_1" transform="translate(23.000000, 7.000000)">
			<rect id="Rectangle" class="st0" width="30" height="30"/>
			<g id="sun">
				<path id="O" class="st1" d="M15,20.4L15,20.4c3,0,5.4-2.4,5.4-5.4S18,9.6,15,9.6S9.6,12,9.6,15S12,20.4,15,20.4L15,20.4z
					 M15,22.8L15,22.8c-4.3,0-7.8-3.5-7.8-7.8s3.5-7.8,7.8-7.8s7.8,3.5,7.8,7.8S19.3,22.8,15,22.8L15,22.8z"/>
				<path id="light" class="st1" d="M13.8,1.2C13.8,0.5,14.3,0,15,0c0.7,0,1.2,0.5,1.2,1.2v2.4c0,0.7-0.5,1.2-1.2,1.2
					c-0.7,0-1.2-0.5-1.2-1.2V1.2z M23.9,4.4c0.5-0.5,1.2-0.5,1.7,0c0.5,0.5,0.5,1.2,0,1.7l-1.7,1.7c-0.5,0.5-1.2,0.5-1.7,0
					c-0.5-0.5-0.5-1.2,0-1.7L23.9,4.4z M28.8,13.8c0.7,0,1.2,0.5,1.2,1.2c0,0.7-0.5,1.2-1.2,1.2h-2.4c-0.7,0-1.2-0.5-1.2-1.2
					c0-0.7,0.5-1.2,1.2-1.2H28.8z M25.6,23.9c0.5,0.5,0.5,1.2,0,1.7c-0.5,0.5-1.2,0.5-1.7,0l-1.7-1.7c-0.5-0.5-0.5-1.2,0-1.7
					c0.5-0.5,1.2-0.5,1.7,0L25.6,23.9z M16.2,28.8c0,0.7-0.5,1.2-1.2,1.2c-0.7,0-1.2-0.5-1.2-1.2v-2.4c0-0.7,0.5-1.2,1.2-1.2
					c0.7,0,1.2,0.5,1.2,1.2V28.8z M6.1,25.6c-0.5,0.5-1.2,0.5-1.7,0c-0.5-0.5-0.5-1.2,0-1.7l1.7-1.7c0.5-0.5,1.2-0.5,1.7,0
					c0.5,0.5,0.5,1.2,0,1.7L6.1,25.6z M1.2,16.2C0.5,16.2,0,15.7,0,15c0-0.7,0.5-1.2,1.2-1.2h2.4c0.7,0,1.2,0.5,1.2,1.2
					c0,0.7-0.5,1.2-1.2,1.2H1.2z M4.4,6.1c-0.5-0.5-0.5-1.2,0-1.7c0.5-0.5,1.2-0.5,1.7,0l1.7,1.7c0.5,0.5,0.5,1.2,0,1.7
					c-0.5,0.5-1.2,0.5-1.7,0L4.4,6.1z"/>
			</g>
		</g>
	</g>
</g>
</svg>
